web/assets/img/functions/530_8.svg

<svg id="vector" xmlns="http://www.w3.org/2000/svg" width="512" height="512" viewBox="0 0 512 512">
    <path fill="#000000" d="M106,158.12C106.01,158.41 106.01,158.71 106,159V158.12ZM246,158V159C246,158.66 246,158.33 246.05,158H246Z"
          id="path_0"/>
    <path fill="#000000" d="M106,158.12C106.01,158.41 106.01,158.71 106,159V158.12Z" id="path_1"/>
    <path fill="#000000" d="M246,158V159C246,158.66 246,158.33 246.05,158H246Z" id="path_2"/>
    <path fill="#000000"
          d="M446,167.63V159C446.13,151.04 443.1,143.36 437.57,137.64C432.03,131.92 424.46,128.63 416.5,128.5C408.54,128.37 400.86,131.4 395.14,136.93C389.42,142.47 386.13,150.04 386,158H366C366,150.04 362.84,142.41 357.21,136.79C351.59,131.16 343.96,128 336,128C328.04,128 320.41,131.16 314.79,136.79C309.16,142.41 306,150.04 306,158H286C285.74,150.22 282.47,142.84 276.87,137.43C271.27,132.02 263.79,129 256,129C252.59,128.99 249.21,129.58 246,130.72V98C246,95.35 244.95,92.8 243.07,90.93C241.2,89.05 238.65,88 236,88H116C113.35,88 110.8,89.05 108.93,90.93C107.05,92.8 106,95.35 106,98V130.72C102.79,129.58 99.41,128.99 96,129C88.04,129 80.41,132.16 74.79,137.79C69.16,143.41 66,151.04 66,159V167.63C46.65,176.33 30.23,190.43 18.7,208.23C7.17,226.03 1.02,246.79 1,268V314C1.02,335.21 7.17,355.97 18.7,373.77C30.23,391.57 46.65,405.67 66,414.37V423C65.87,430.96 68.9,438.64 74.43,444.36C79.97,450.08 87.54,453.37 95.5,453.5C103.46,453.63 111.14,450.6 116.86,445.07C122.58,439.53 125.87,431.96 126,424H146C146,431.96 149.16,439.59 154.79,445.21C160.41,450.84 168.04,454 176,454C183.96,454 191.59,450.84 197.21,445.21C202.84,439.59 206,431.96 206,424H226C226,431.96 229.16,439.59 234.79,445.21C240.41,450.84 248.04,454 256,454C263.96,454 271.59,450.84 277.21,445.21C282.84,439.59 286,431.96 286,424H306C306,431.96 309.16,439.59 314.79,445.21C320.41,450.84 328.04,454 336,454C343.96,454 351.59,450.84 357.21,445.21C362.84,439.59 366,431.96 366,424H386C386.13,431.96 389.42,439.53 395.14,445.07C400.86,450.6 408.54,453.63 416.5,453.5C424.46,453.37 432.03,450.08 437.57,444.36C443.1,438.64 446.13,430.96 446,423V414.37C465.35,405.67 481.77,391.57 493.3,373.77C504.83,355.97 510.98,335.21 511,314V268C510.98,246.79 504.83,226.03 493.3,208.23C481.77,190.43 465.35,176.33 446,167.63ZM66,391.92C52.32,384.02 40.96,372.67 33.06,358.99C25.16,345.31 21,329.8 21,314V268C21,252.21 25.16,236.69 33.06,223.01C40.96,209.34 52.32,197.98 66,190.08V391.92ZM106,423C106.01,423.29 106.01,423.59 106,423.88C105.88,426.53 104.72,429.03 102.76,430.82C100.8,432.61 98.21,433.56 95.56,433.44C92.91,433.32 90.41,432.16 88.62,430.2C86.82,428.24 85.88,425.65 86,423V159C85.88,156.35 86.82,153.76 88.62,151.8C90.41,149.84 92.91,148.68 95.56,148.56C98.21,148.44 100.8,149.38 102.76,151.18C104.72,152.97 105.88,155.47 106,158.12V423ZM146,404H126V178H146V404ZM186,423C186,423.34 186,423.67 185.95,424C185.7,426.47 184.55,428.75 182.71,430.42C180.87,432.08 178.48,433 176,433C173.52,433 171.13,432.08 169.29,430.42C167.45,428.75 166.3,426.47 166.05,424C166.05,423.67 166,423.34 166,423V178H186V423ZM226,404H206V178H226V404ZM226,158H126V108H226V158ZM266,423C266,423.34 266,423.67 265.95,424C265.7,426.47 264.55,428.75 262.71,430.42C260.87,432.08 258.48,433 256,433C253.52,433 251.13,432.08 249.29,430.42C247.45,428.75 246.3,426.47 246.05,424C246.05,423.67 246,423.34 246,423V158H246.05C246.3,155.53 247.45,153.25 249.29,151.58C251.13,149.92 253.52,149 256,149C258.48,149 260.87,149.92 262.71,151.58C264.55,153.25 265.7,155.53 265.95,158C265.95,158.33 266,158.66 266,159V423ZM306,404H286V178H306V404ZM346,423C346,423.34 346,423.67 345.95,424C345.7,426.47 344.55,428.75 342.71,430.42C340.87,432.08 338.48,433 336,433C333.52,433 331.13,432.08 329.29,430.42C327.45,428.75 326.3,426.47 326.05,424C326.05,423.67 326,423.34 326,423V159C326,158.66 326,158.33 326.05,158C326.3,155.53 327.45,153.25 329.29,151.58C331.13,149.92 333.52,149 336,149C338.48,149 340.87,149.92 342.71,151.58C344.55,153.25 345.7,155.53 345.95,158C345.95,158.33 346,158.66 346,159V423ZM386,404H366V178H386V404ZM426,423C426.12,425.65 425.17,428.24 423.38,430.2C421.59,432.16 419.09,433.32 416.44,433.44C413.79,433.56 411.2,432.61 409.24,430.82C407.28,429.03 406.12,426.53 406,423.88C405.98,423.59 405.98,423.29 406,423V159C405.98,158.71 405.98,158.41 406,158.12C406.12,155.47 407.28,152.97 409.24,151.18C411.2,149.38 413.79,148.44 416.44,148.56C419.09,148.68 421.59,149.84 423.38,151.8C425.17,153.76 426.12,156.35 426,159V423ZM491,314C491,329.8 486.84,345.31 478.94,358.99C471.04,372.67 459.68,384.02 446,391.92V190.08C459.68,197.98 471.04,209.34 478.94,223.01C486.84,236.69 491,252.21 491,268V314Z"
          id="path_3"/>
    <path fill="#00D151"
          d="M257,108H95C92.35,108 89.8,106.95 87.93,105.07C86.05,103.2 85,100.65 85,98V59C85,56.35 86.05,53.8 87.93,51.93C89.8,50.05 92.35,49 95,49H257C259.65,49 262.2,50.05 264.07,51.93C265.95,53.8 267,56.35 267,59V98C267,100.65 265.95,103.2 264.07,105.07C262.2,106.95 259.65,108 257,108ZM105,88H247V69H105V88Z"
          id="path_4"/>
</svg>

<?xml version="1.0" encoding="utf-8"?>
<!-- Generator: Adobe Illustrator 28.2.0, SVG Export Plug-In . SVG Version: 6.00 Build 0)  -->
<svg version="1.1" id="vector" xmlns="http://www.w3.org/2000/svg" xmlns:xlink="http://www.w3.org/1999/xlink" x="0px" y="0px"
	 viewBox="0 0 512 512" style="enable-background:new 0 0 512 512;" xml:space="preserve">
<style type="text/css">
	.st0{fill:#33B0DF;}
</style>
<path id="path_0" d="M106,158.1c0,0.3,0,0.6,0,0.9V158.1z M246,158v1C246,158.7,246,158.3,246,158L246,158z"/>
<path id="path_1" d="M106,158.1c0,0.3,0,0.6,0,0.9V158.1z"/>
<path id="path_2" d="M246,158v1C246,158.7,246,158.3,246,158L246,158z"/>
<path id="path_3" d="M446,167.6V159c0.1-8-2.9-15.6-8.4-21.4c-5.5-5.7-13.1-9-21.1-9.1s-15.6,2.9-21.4,8.4c-5.7,5.5-9,13.1-9.1,21.1
	h-20c0-8-3.2-15.6-8.8-21.2c-5.6-5.6-13.2-8.8-21.2-8.8s-15.6,3.2-21.2,8.8c-5.6,5.6-8.8,13.2-8.8,21.2h-20
	c-0.3-7.8-3.5-15.2-9.1-20.6c-5.6-5.4-13.1-8.4-20.9-8.4c-3.4,0-6.8,0.6-10,1.7V98c0-2.7-1.1-5.2-2.9-7.1c-1.9-1.9-4.4-2.9-7.1-2.9
	H116c-2.7,0-5.2,1.1-7.1,2.9c-1.9,1.9-2.9,4.4-2.9,7.1v32.7c-3.2-1.1-6.6-1.7-10-1.7c-8,0-15.6,3.2-21.2,8.8
	C69.2,143.4,66,151,66,159v8.6c-19.3,8.7-35.8,22.8-47.3,40.6S1,246.8,1,268v46c0,21.2,6.2,42,17.7,59.8
	c11.5,17.8,28,31.9,47.3,40.6v8.6c-0.1,8,2.9,15.6,8.4,21.4c5.5,5.7,13.1,9,21.1,9.1s15.6-2.9,21.4-8.4c5.7-5.5,9-13.1,9.1-21.1h20
	c0,8,3.2,15.6,8.8,21.2c5.6,5.6,13.2,8.8,21.2,8.8s15.6-3.2,21.2-8.8c5.6-5.6,8.8-13.2,8.8-21.2h20c0,8,3.2,15.6,8.8,21.2
	c5.6,5.6,13.2,8.8,21.2,8.8c8,0,15.6-3.2,21.2-8.8c5.6-5.6,8.8-13.2,8.8-21.2h20c0,8,3.2,15.6,8.8,21.2c5.6,5.6,13.2,8.8,21.2,8.8
	s15.6-3.2,21.2-8.8c5.6-5.6,8.8-13.2,8.8-21.2h20c0.1,8,3.4,15.5,9.1,21.1c5.7,5.5,13.4,8.6,21.4,8.4s15.5-3.4,21.1-9.1
	c5.5-5.7,8.6-13.4,8.4-21.4v-8.6c19.4-8.7,35.8-22.8,47.3-40.6C504.8,356,511,335.2,511,314v-46c0-21.2-6.2-42-17.7-59.8
	S465.4,176.3,446,167.6z M66,391.9C52.3,384,41,372.7,33.1,359C25.2,345.3,21,329.8,21,314v-46c0-15.8,4.2-31.3,12.1-45
	c7.9-13.7,19.3-25,32.9-32.9V391.9z M106,423c0,0.3,0,0.6,0,0.9c-0.1,2.6-1.3,5.1-3.2,6.9c-2,1.8-4.6,2.7-7.2,2.6
	c-2.6-0.1-5.1-1.3-6.9-3.2c-1.8-2-2.7-4.6-2.6-7.2V159c-0.1-2.6,0.8-5.2,2.6-7.2c1.8-2,4.3-3.1,6.9-3.2c2.7-0.1,5.2,0.8,7.2,2.6
	c2,1.8,3.1,4.3,3.2,6.9V423z M146,404h-20V178h20V404z M186,423c0,0.3,0,0.7-0.1,1c-0.2,2.5-1.4,4.8-3.2,6.4
	c-1.8,1.7-4.2,2.6-6.7,2.6s-4.9-0.9-6.7-2.6c-1.8-1.7-3-4-3.2-6.4c0-0.3-0.1-0.7-0.1-1V178h20V423z M226,404h-20V178h20V404z
	 M226,158H126v-50h100V158z M266,423c0,0.3,0,0.7,0,1c-0.2,2.5-1.4,4.8-3.2,6.4c-1.8,1.7-4.2,2.6-6.7,2.6c-2.5,0-4.9-0.9-6.7-2.6
	c-1.8-1.7-3-4-3.2-6.4c0-0.3-0.1-0.7-0.1-1V158h0.1c0.2-2.5,1.4-4.8,3.2-6.4c1.8-1.7,4.2-2.6,6.7-2.6c2.5,0,4.9,0.9,6.7,2.6
	c1.8,1.7,3,3.9,3.2,6.4c0,0.3,0,0.7,0,1V423z M306,404h-20V178h20V404z M346,423c0,0.3,0,0.7,0,1c-0.2,2.5-1.4,4.8-3.2,6.4
	c-1.8,1.7-4.2,2.6-6.7,2.6s-4.9-0.9-6.7-2.6c-1.8-1.7-3-4-3.2-6.4c0-0.3,0-0.7,0-1V159c0-0.3,0-0.7,0-1c0.2-2.5,1.4-4.8,3.2-6.4
	c1.8-1.7,4.2-2.6,6.7-2.6s4.9,0.9,6.7,2.6c1.8,1.7,3,3.9,3.2,6.4c0,0.3,0,0.7,0,1V423z M386,404h-20V178h20V404z M426,423
	c0.1,2.6-0.8,5.2-2.6,7.2c-1.8,2-4.3,3.1-6.9,3.2s-5.2-0.8-7.2-2.6c-2-1.8-3.1-4.3-3.2-6.9c0-0.3,0-0.6,0-0.9V159c0-0.3,0-0.6,0-0.9
	c0.1-2.6,1.3-5.1,3.2-6.9c2-1.8,4.6-2.7,7.2-2.6s5.1,1.3,6.9,3.2c1.8,2,2.7,4.6,2.6,7.2V423z M491,314c0,15.8-4.2,31.3-12.1,45
	c-7.9,13.7-19.3,25-32.9,32.9V190.1c13.7,7.9,25,19.3,32.9,32.9c7.9,13.7,12.1,29.2,12.1,45V314z"/>
<path id="path_4" class="st0" d="M257,108H95c-2.7,0-5.2-1.1-7.1-2.9c-1.9-1.9-2.9-4.4-2.9-7.1V59c0-2.7,1.1-5.2,2.9-7.1
	C89.8,50,92.3,49,95,49h162c2.6,0,5.2,1,7.1,2.9c1.9,1.9,2.9,4.4,2.9,7.1v39c0,2.7-1,5.2-2.9,7.1C262.2,106.9,259.6,108,257,108z
	 M105,88h142V69H105V88z"/>
</svg>
